X:60
T:Fiddle Stepper's Reel
R:reel
C:Bruce Osborne - 2003
Z:abc by bosborne@kos.net
M:2/4
L:1/8
K:Fmaj
f/g/|a/f/c/f/ A/c/F/G/|A/c/F/G/ AG/A/|B/G/^F/G/ C/G/^F/G/|A/F/F/E/ Ff/g/|\
a/f/c/f/ A/c/F/G/|A/c/F/G/ AG/A/|B/G/^F/G/ C/G/^F/G/|A/F/F/E/ F:|
|:A/B/|c/F/F/F/ d/F/F/F/|c/F/F/G/ AG/A/|B/G/^F/G/ C/G/^F/G/|A/F/F/E/ FA/B/|\
c/F/F/F/ d/F/F/F/|c/F/F/G/ AG/A/|B/G/^F/G/ C/G/^F/G/|A/F/F/E/ F:|
